Suru++-Asprómauros/apps/16/php.svg

<svg xmlns="http://www.w3.org/2000/svg" width="16" height="16" version="1.1">
 <defs>
  <style id="current-color-scheme" type="text/css">
   .ColorScheme-Text { color:#ececec; } .ColorScheme-Highlight { color:#5294e2; }
  </style>
  <linearGradient id="arrongin" x1="0%" x2="0%" y1="0%" y2="100%">
   <stop id="stop3" offset="0%" style="stop-color:#dd9b44"/>
   <stop id="stop5" offset="100%" style="stop-color:#ad6c16"/>
  </linearGradient>
  <linearGradient id="aurora" x1="0%" x2="0%" y1="0%" y2="100%">
   <stop id="stop8" offset="0%" style="stop-color:#09D4DF"/>
   <stop id="stop10" offset="100%" style="stop-color:#9269F4"/>
  </linearGradient>
  <linearGradient id="fitdance" x1="0%" x2="0%" y1="0%" y2="100%">
   <stop id="stop13" offset="0%" style="stop-color:#1AD6AB"/>
   <stop id="stop15" offset="100%" style="stop-color:#329DB6"/>
  </linearGradient>
  <linearGradient id="oomox" x1="0%" x2="0%" y1="0%" y2="100%">
   <stop id="stop18" offset="0%" style="stop-color:#efefe7"/>
   <stop id="stop20" offset="100%" style="stop-color:#8f8f8b"/>
  </linearGradient>
  <linearGradient id="rainblue" x1="0%" x2="0%" y1="0%" y2="100%">
   <stop id="stop23" offset="0%" style="stop-color:#00F260"/>
   <stop id="stop25" offset="100%" style="stop-color:#0575E6"/>
  </linearGradient>
  <linearGradient id="sunrise" x1="0%" x2="0%" y1="0%" y2="100%">
   <stop id="stop28" offset="0%" style="stop-color:#FF8501"/>
   <stop id="stop30" offset="100%" style="stop-color:#FFCB01"/>
  </linearGradient>
  <linearGradient id="telinkrin" x1="0%" x2="0%" y1="0%" y2="100%">
   <stop id="stop33" offset="0%" style="stop-color:#b2ced6"/>
   <stop id="stop35" offset="100%" style="stop-color:#6da5b7"/>
  </linearGradient>
  <linearGradient id="60spsycho" x1="0%" x2="0%" y1="0%" y2="100%">
   <stop id="stop38" offset="0%" style="stop-color:#df5940"/>
   <stop id="stop40" offset="25%" style="stop-color:#d8d15f"/>
   <stop id="stop42" offset="50%" style="stop-color:#e9882a"/>
   <stop id="stop44" offset="100%" style="stop-color:#279362"/>
  </linearGradient>
  <linearGradient id="90ssummer" x1="0%" x2="0%" y1="0%" y2="100%">
   <stop id="stop47" offset="0%" style="stop-color:#f618c7"/>
   <stop id="stop49" offset="20%" style="stop-color:#94ffab"/>
   <stop id="stop51" offset="50%" style="stop-color:#fbfd54"/>
   <stop id="stop53" offset="100%" style="stop-color:#0f83ae"/>
  </linearGradient>
  <linearGradient id="cyberneon" x1="0%" x2="0%" y1="0%" y2="100%">
   <stop id="stop56" offset="0" style="stop-color:#0abdc6"/>
   <stop id="stop58" offset="1" style="stop-color:#ea00d9"/>
  </linearGradient>
 </defs>
 <path fill="currentColor" class="ColorScheme-Text" d="M 4.019,5.725 H 1.213 L 0,11.867 h 1.441 l 0.303,-1.592 h 1.365 c 1.289,0.076 2.73,-0.986 2.73,-2.806 0,-1.061 -0.607,-1.668 -1.82,-1.744 z M 2.957,9.138 h -0.91 l 0.38,-2.275 h 0.985 c 0.531,0 0.91,0.227 0.91,0.682 C 4.246,8.834 3.64,9.062 2.957,9.138 Z M 5.384,10.275 6.597,4.133 H 8.038 L 7.734,5.725 h 1.365 c 1.214,0.076 1.669,0.683 1.517,1.441 l -0.531,3.109 H 8.568 L 9.099,7.469 C 9.175,7.09 9.175,6.863 8.644,6.863 H 7.507 l -0.683,3.412 z m 8.796,-4.55 h -2.806 l -1.213,6.142 h 1.441 l 0.303,-1.592 H 13.27 C 14.559,10.351 16,9.289 16,7.469 16,6.408 15.393,5.801 14.18,5.725 Z m -1.062,3.413 h -0.91 l 0.38,-2.275 h 0.985 c 0.531,0 0.91,0.227 0.91,0.682 -0.075,1.289 -0.682,1.517 -1.365,1.593 z"/>
</svg>

<svg xmlns="http://www.w3.org/2000/svg" width="16" height="16" version="1.1">
 <defs>
   <style id="current-color-scheme" type="text/css">
   .ColorScheme-Text { color: #ececec; } .ColorScheme-Highlight { color:#5294e2; }
  </style>
  <linearGradient id="arrongin" x1="0%" x2="0%" y1="0%" y2="100%">
   <stop offset="0%" style="stop-color:#dd9b44; stop-opacity:1"/>
   <stop offset="100%" style="stop-color:#ad6c16; stop-opacity:1"/>
  </linearGradient>
  <linearGradient id="aurora" x1="0%" x2="0%" y1="0%" y2="100%">
   <stop offset="0%" style="stop-color:#09D4DF; stop-opacity:1"/>
   <stop offset="100%" style="stop-color:#9269F4; stop-opacity:1"/>
  </linearGradient>
  <linearGradient id="cyberneon" x1="0%" x2="0%" y1="0%" y2="100%">
    <stop offset="0" style="stop-color:#0abdc6; stop-opacity:1"/>
    <stop offset="1" style="stop-color:#ea00d9; stop-opacity:1"/>
  </linearGradient>
  <linearGradient id="fitdance" x1="0%" x2="0%" y1="0%" y2="100%">
   <stop offset="0%" style="stop-color:#1AD6AB; stop-opacity:1"/>
   <stop offset="100%" style="stop-color:#329DB6; stop-opacity:1"/>
  </linearGradient>
  <linearGradient id="oomox" x1="0%" x2="0%" y1="0%" y2="100%">
   <stop offset="0%" style="stop-color:#efefe7; stop-opacity:1"/>
   <stop offset="100%" style="stop-color:#8f8f8b; stop-opacity:1"/>
  </linearGradient>
  <linearGradient id="rainblue" x1="0%" x2="0%" y1="0%" y2="100%">
   <stop offset="0%" style="stop-color:#00F260; stop-opacity:1"/>
   <stop offset="100%" style="stop-color:#0575E6; stop-opacity:1"/>
  </linearGradient>
  <linearGradient id="sunrise" x1="0%" x2="0%" y1="0%" y2="100%">
   <stop offset="0%" style="stop-color: #FF8501; stop-opacity:1"/>
   <stop offset="100%" style="stop-color: #FFCB01; stop-opacity:1"/>
  </linearGradient>
  <linearGradient id="telinkrin" x1="0%" x2="0%" y1="0%" y2="100%">
   <stop offset="0%" style="stop-color: #b2ced6; stop-opacity:1"/>
   <stop offset="100%" style="stop-color: #6da5b7; stop-opacity:1"/>
  </linearGradient>
  <linearGradient id="60spsycho" x1="0%" x2="0%" y1="0%" y2="100%">
   <stop offset="0%" style="stop-color: #df5940; stop-opacity:1"/>
   <stop offset="25%" style="stop-color: #d8d15f; stop-opacity:1"/>
   <stop offset="50%" style="stop-color: #e9882a; stop-opacity:1"/>
   <stop offset="100%" style="stop-color: #279362; stop-opacity:1"/>
  </linearGradient>
  <linearGradient id="90ssummer" x1="0%" x2="0%" y1="0%" y2="100%">
   <stop offset="0%" style="stop-color: #f618c7; stop-opacity:1"/>
   <stop offset="20%" style="stop-color: #94ffab; stop-opacity:1"/>
   <stop offset="50%" style="stop-color: #fbfd54; stop-opacity:1"/>
   <stop offset="100%" style="stop-color: #0f83ae; stop-opacity:1"/>
  </linearGradient>
 </defs>
 <path fill="currentColor" class="ColorScheme-Text" fill-rule="evenodd" d="M 4.019 5.725 L 1.213 5.725 L 0 11.867 L 1.441 11.867 L 1.744 10.275 L 3.109 10.275 C 4.398 10.351 5.839 9.289 5.839 7.469 C 5.839 6.408 5.232 5.801 4.019 5.725 L 4.019 5.725 Z M 2.957 9.138 L 2.047 9.138 L 2.427 6.863 L 3.412 6.863 C 3.943 6.863 4.322 7.09 4.322 7.545 C 4.246 8.834 3.64 9.062 2.957 9.138 Z M 5.384 10.275 L 6.597 4.133 L 8.038 4.133 L 7.734 5.725 L 9.099 5.725 C 10.313 5.801 10.768 6.408 10.616 7.166 L 10.085 10.275 L 8.568 10.275 L 9.099 7.469 C 9.175 7.09 9.175 6.863 8.644 6.863 L 7.507 6.863 L 6.824 10.275 L 5.384 10.275 Z M 14.18 5.725 L 11.374 5.725 L 10.161 11.867 L 11.602 11.867 L 11.905 10.275 L 13.27 10.275 C 14.559 10.351 16 9.289 16 7.469 C 16 6.408 15.393 5.801 14.18 5.725 L 14.18 5.725 Z M 13.118 9.138 L 12.208 9.138 L 12.588 6.863 L 13.573 6.863 C 14.104 6.863 14.483 7.09 14.483 7.545 C 14.408 8.834 13.801 9.062 13.118 9.138 L 13.118 9.138 Z"/>
</svg>
